svgs/regular/potato.svg

<svg xmlns="http://www.w3.org/2000/svg" viewBox="0 0 512 512"><!--! Font Awesome Pro 7.1.0 by @fontawesome - https://fontawesome.com License - https://fontawesome.com/license (Commercial License) Copyright 2025 Fonticons, Inc. --><path fill="currentColor" d="M464 144c0-53-43-96-96-96-26.6 0-50.6 10.7-68 28.2-30.7 30.8-68.1 58.7-106.1 79.5-16.1 8.8-29.4 22.1-38.2 38.2-20.8 38-48.7 75.3-79.5 106.1-17.5 17.4-28.2 41.4-28.2 68 0 53 43 96 96 96 20.2 0 38.9-6.2 54.3-16.8 31.8-21.9 67.9-39.9 104.3-52.2 29.5-10 53.5-34 62.1-66.1 11.5-42.8 36.5-84.4 68.8-114.7 18.8-17.6 30.4-42.5 30.4-70.1zm48 0c0 41.5-17.6 78.9-45.7 105.2-25.8 24.2-46.1 57.9-55.2 92.1-12.9 48.3-49 84.3-93.1 99.2-32.3 10.9-64.4 26.9-92.5 46.2-23.2 15.9-51.3 25.3-81.5 25.3-79.5 0-144-64.5-144-144 0-39.8 16.2-75.9 42.3-102 27.5-27.4 52.6-61.1 71.3-95.1 13.2-24.1 33.1-44 57.3-57.3 34.1-18.7 67.7-43.8 95.1-71.3 26.1-26.1 62.1-42.3 102-42.3 79.5 0 144 64.5 144 144zM352 168a24 24 0 1 1 0 48 24 24 0 1 1 0-48zM168 256a24 24 0 1 1 48 0 24 24 0 1 1 -48 0zm-8 104a24 24 0 1 1 0 48 24 24 0 1 1 0-48z"/></svg>

<svg xmlns="http://www.w3.org/2000/svg" viewBox="0 0 512 512"><!--! Font Awesome Pro 6.6.0 by @fontawesome - https://fontawesome.com License - https://fontawesome.com/license (Commercial License) Copyright 2024 Fonticons, Inc. --><path d="M464 144c0-53-43-96-96-96c-26.6 0-50.5 10.7-68 28.2C269.3 107 232 134.9 194 155.7c-16.1 8.8-29.4 22.1-38.2 38.2C134.9 232 107 269.3 76.2 300C58.7 317.5 48 341.4 48 368c0 53 43 96 96 96c20.2 0 38.9-6.2 54.3-16.8c31.8-21.9 67.9-39.9 104.3-52.2c29.5-10 53.5-34 62.1-66.1c11.5-42.8 36.5-84.4 68.8-114.7C452.4 196.6 464 171.7 464 144zm48 0c0 41.5-17.6 78.9-45.7 105.2c-25.8 24.2-46.1 57.9-55.2 92.1c-12.9 48.3-49 84.3-93.1 99.2c-32.3 10.9-64.4 26.9-92.5 46.2C202.4 502.7 174.3 512 144 512C64.5 512 0 447.5 0 368c0-39.8 16.2-75.9 42.3-102C69.8 238.6 95 205 113.6 170.9c13.2-24.1 33.1-44 57.3-57.3C205 95 238.6 69.8 266 42.3C292.1 16.2 328.2 0 368 0c79.5 0 144 64.5 144 144zM352 168a24 24 0 1 1 0 48 24 24 0 1 1 0-48zM168 256a24 24 0 1 1 48 0 24 24 0 1 1 -48 0zm-8 104a24 24 0 1 1 0 48 24 24 0 1 1 0-48z"/></svg>
